icons/svg/seamark_big/small_craft_facility_water_tap.svg

<?xml version="1.0" encoding="UTF-8" standalone="no"?>
<svg
   xmlns:dc="http://purl.org/dc/elements/1.1/"
   xmlns:cc="http://creativecommons.org/ns#"
   xmlns:rdf="http://www.w3.org/1999/02/22-rdf-syntax-ns#"
   xmlns:svg="http://www.w3.org/2000/svg"
   xmlns="http://www.w3.org/2000/svg"
   xmlns:sodipodi="http://sodipodi.sourceforge.net/DTD/sodipodi-0.dtd"
   xmlns:inkscape="http://www.inkscape.org/namespaces/inkscape"
   width="1060"
   height="1060"
   id="svg2"
   version="1.1"
   inkscape:version="0.48.4 r9939"
   sodipodi:docname="small_craft_facility_showers.svg">
  <defs
     id="defs13">
    <marker
       inkscape:stockid="TriangleOutM"
       orient="auto"
       refY="0.0"
       refX="0.0"
       id="TriangleOutM"
       style="overflow:visible">
      <path
         id="path4014"
         d="M 5.77,0.0 L -2.88,5.0 L -2.88,-5.0 L 5.77,0.0 z "
         style="fill-rule:evenodd;stroke:#000000;stroke-width:1.0pt"
         transform="scale(0.4)" />
    </marker>
    <marker
       inkscape:stockid="TriangleOutS"
       orient="auto"
       refY="0.0"
       refX="0.0"
       id="TriangleOutS"
       style="overflow:visible">
      <path
         id="path4017"
         d="M 5.77,0.0 L -2.88,5.0 L -2.88,-5.0 L 5.77,0.0 z "
         style="fill-rule:evenodd;stroke:#000000;stroke-width:1.0pt"
         transform="scale(0.2)" />
    </marker>
    <marker
       inkscape:stockid="Arrow2Send"
       orient="auto"
       refY="0.0"
       refX="0.0"
       id="Arrow2Send"
       style="overflow:visible;">
      <path
         id="path3902"
         style="fill-rule:evenodd;stroke-width:0.62500000;stroke-linejoin:round;"
         d="M 8.7185878,4.0337352 L -2.2072895,0.016013256 L 8.7185884,-4.0017078 C 6.9730900,-1.6296469 6.9831476,1.6157441 8.7185878,4.0337352 z "
         transform="scale(0.3) rotate(180) translate(-2.3,0)" />
    </marker>
    <marker
       inkscape:stockid="Arrow1Send"
       orient="auto"
       refY="0.0"
       refX="0.0"
       id="Arrow1Send"
       style="overflow:visible;">
      <path
         id="path3884"
         d="M 0.0,0.0 L 5.0,-5.0 L -12.5,0.0 L 5.0,5.0 L 0.0,0.0 z "
         style="fill-rule:evenodd;stroke:#000000;stroke-width:1.0pt;"
         transform="scale(0.2) rotate(180) translate(6,0)" />
    </marker>
    <marker
       inkscape:stockid="Arrow1Lend"
       orient="auto"
       refY="0.0"
       refX="0.0"
       id="Arrow1Lend"
       style="overflow:visible;">
      <path
         id="path3872"
         d="M 0.0,0.0 L 5.0,-5.0 L -12.5,0.0 L 5.0,5.0 L 0.0,0.0 z "
         style="fill-rule:evenodd;stroke:#000000;stroke-width:1.0pt;"
         transform="scale(0.8) rotate(180) translate(12.5,0)" />
    </marker>
    <inkscape:path-effect
       effect="gears"
       id="path-effect3774"
       is_visible="true"
       teeth="6"
       phi="-1.2" />
    <inkscape:path-effect
       effect="bend_path"
       id="path-effect3772"
       is_visible="false"
       bendpath="m 95.790098,316.51174 c 144.429032,-206.42506 223.313032,-11.7428 339.548092,0"
       prop_scale="1.19"
       scale_y_rel="false"
       vertical="false"
       bendpath-nodetypes="cc" />
  </defs>
  <sodipodi:namedview
     pagecolor="#ffffff"
     bordercolor="#666666"
     borderopacity="1"
     objecttolerance="10"
     gridtolerance="10"
     guidetolerance="10"
     inkscape:pageopacity="0"
     inkscape:pageshadow="2"
     inkscape:window-width="1920"
     inkscape:window-height="1004"
     id="namedview11"
     showgrid="false"
     inkscape:zoom="0.81379307"
     inkscape:cx="517.38548"
     inkscape:cy="568.01696"
     inkscape:window-x="1680"
     inkscape:window-y="0"
     inkscape:window-maximized="1"
     inkscape:current-layer="svg2"
     inkscape:snap-object-midpoints="true"
     inkscape:snap-center="true"
     inkscape:snap-global="true"
     inkscape:snap-midpoints="true"
     inkscape:object-nodes="true"
     inkscape:snap-smooth-nodes="true"
     inkscape:object-paths="true">
    <inkscape:grid
       type="xygrid"
       id="grid2989" />
  </sodipodi:namedview>
  <metadata
     id="metadata2975">image/svg+xmlen<rdf:RDF>
  <cc:Work
     rdf:about="">
    <dc:format>image/svg+xml</dc:format>
    <dc:type
       rdf:resource="http://purl.org/dc/dcmitype/StillImage" />
    <dc:title></dc:title>
  </cc:Work>
</rdf:RDF>
</metadata>
  <path
     inkscape:connector-curvature="0"
     d="M 432.16581,550.55341 H 419.01164 V 435.45435 h 13.15417 c 6.5771,0 11.50991,4.93282 11.50991,11.5099 v 92.07925 c 0,6.57709 -4.93281,11.50991 -11.50991,11.50991 z"
     id="path5"
     style="color:#000000;fill:#930093;fill-opacity:1;fill-rule:nonzero;stroke:none;stroke-width:10;marker:none;visibility:visible;display:inline;overflow:visible;enable-background:accumulate" />
  <path
     inkscape:connector-curvature="0"
     class="st0"
     d="m 451.89708,493.00388 h 110.98836 c 25.48622,0 45.21749,20.5534 45.21749,45.21748 l 0,28.77476"
     id="path7"
     style="fill:none;stroke:#930093;stroke-width:50.6978035;stroke-miterlimit:4;stroke-opacity:1;stroke-dasharray:none" />
  <circle
     transform="matrix(8.2213604,0,0,8.2213604,419.01164,369.68346)"
     sodipodi:ry="5"
     sodipodi:rx="5"
     sodipodi:cy="15"
     sodipodi:cx="13"
     cx="13"
     cy="15"
     r="5"
     id="circle9"
     style="color:#000000;fill:#930093;fill-opacity:1;fill-rule:nonzero;stroke:none;stroke-width:0.90552062;marker:none;visibility:visible;display:inline;overflow:visible;enable-background:accumulate" />
  <path
     inkscape:connector-curvature="0"
     d="m 579.32818,386.94832 c -5.75496,-1.64427 -10.68778,0 -14.79845,3.28855 -3.28855,3.28854 -8.22136,4.11068 -13.15418,4.11068 h -25.48623 v 16.44272 h 25.48623 c 4.93282,0 9.86563,1.64427 13.9763,4.93281 2.46642,2.46641 6.5771,3.28855 9.86565,3.28855 9.86563,0 18.08699,-9.0435 16.44272,-19.73127 -1.64428,-6.57708 -6.57709,-11.5099 -12.33204,-12.33204 z"
     id="path11"
     style="color:#000000;fill:#930093;fill-opacity:1;fill-rule:nonzero;stroke:none;stroke-width:10;marker:none;visibility:visible;display:inline;overflow:visible;enable-background:accumulate" />
  <path
     inkscape:connector-curvature="0"
     d="m 472.45048,418.18949 c 5.75496,1.64428 10.68777,0 14.79845,-3.28854 3.28855,-3.28854 8.22136,-4.11068 13.15418,-4.11068 h 25.4862 V 394.34755 H 500.4031 c -4.93282,0 -9.86563,-1.64427 -13.97631,-4.93281 -2.46641,-2.46642 -6.57709,-3.28855 -9.86563,-3.28855 -9.86564,0 -18.087,9.0435 -16.44272,19.73127 1.64427,6.57708 6.57708,11.5099 12.33203,12.33203 z"
     id="path13"
     style="color:#000000;fill:#930093;fill-opacity:1;fill-rule:nonzero;stroke:none;stroke-width:10;marker:none;visibility:visible;display:inline;overflow:visible;enable-background:accumulate" />
  <rect
     x="517.66809"
     y="419.01181"
     width="16.442722"
     height="57.549522"
     id="rect15"
     style="color:#000000;fill:#930093;fill-opacity:1;fill-rule:nonzero;stroke:none;stroke-width:10;marker:none;visibility:visible;display:inline;overflow:visible;enable-background:accumulate" />
  <rect
     x="517.66809"
     y="386.12634"
     width="16.442722"
     height="16.442722"
     id="rect17"
     style="color:#000000;fill:#930093;fill-opacity:1;fill-rule:nonzero;stroke:none;stroke-width:10;marker:none;visibility:visible;display:inline;overflow:visible;enable-background:accumulate" />
  <path
     inkscape:connector-curvature="0"
     d="m 607.4625,580.12734 c 0,0 -31.24569,42.96281 -31.24569,62.49136 0,17.18513 14.06056,31.24569 31.24569,31.24569 17.18512,0 31.24568,-14.06056 31.24568,-31.24569 0,-20.70026 -31.24568,-62.49136 -31.24568,-62.49136 z m -11.71713,63.27251 c 0,13.66998 5.85855,18.74741 5.85855,18.74741 0,0 -13.66998,-3.51515 -13.66998,-22.26255 0,-12.88884 15.62284,-40.22882 15.62284,-40.22882 0,0 -7.81141,23.82483 -7.81141,43.74396 z"
     id="path3"
     style="color:#000000;fill:#930093;fill-opacity:1;fill-rule:nonzero;stroke:none;stroke-width:10;marker:none;visibility:visible;display:inline;overflow:visible;enable-background:accumulate" />
</svg>

<svg width="1060" height="1060" viewBox="0 0 1060 1060" fill="none" xmlns="http://www.w3.org/2000/svg">
<path d="M432.166 550.553H419.012V435.454H432.166C438.743 435.454 443.676 440.387 443.676 446.964V539.043C443.676 545.62 438.743 550.553 432.166 550.553Z" fill="#930093"/>
<path d="M451.897 493.004H562.885C588.372 493.004 608.103 513.557 608.103 538.221V566.996" stroke="#930093" stroke-width="50.6978"/>
<path d="M525.889 534.111C548.592 534.111 566.996 515.706 566.996 493.004C566.996 470.301 548.592 451.897 525.889 451.897C503.187 451.897 484.782 470.301 484.782 493.004C484.782 515.706 503.187 534.111 525.889 534.111Z" fill="#930093"/>
<path d="M579.328 386.948C573.573 385.304 568.64 386.948 564.53 390.237C561.241 393.525 556.308 394.348 551.376 394.348H525.889V410.79H551.376C556.308 410.79 561.241 412.434 565.352 415.723C567.818 418.189 571.929 419.012 575.218 419.012C585.083 419.012 593.305 409.968 591.66 399.28C590.016 392.703 585.083 387.77 579.328 386.948Z" fill="#930093"/>
<path d="M472.451 418.189C478.206 419.834 483.138 418.189 487.249 414.901C490.538 411.612 495.47 410.79 500.403 410.79H525.889V394.347H500.403C495.47 394.347 490.538 392.703 486.427 389.415C483.96 386.948 479.85 386.126 476.561 386.126C466.696 386.126 458.474 395.169 460.119 405.857C461.763 412.434 466.696 417.367 472.451 418.189V418.189Z" fill="#930093"/>
<path d="M534.111 419.012H517.668V476.561H534.111V419.012Z" fill="#930093"/>
<path d="M534.111 386.126H517.668V402.569H534.111V386.126Z" fill="#930093"/>
<path d="M607.463 580.127C607.463 580.127 576.217 623.09 576.217 642.619C576.217 659.804 590.277 673.865 607.463 673.865C624.648 673.865 638.708 659.804 638.708 642.619C638.708 621.919 607.463 580.127 607.463 580.127ZM595.745 643.4C595.745 657.07 601.604 662.147 601.604 662.147C601.604 662.147 587.934 658.632 587.934 639.885C587.934 626.996 603.557 599.656 603.557 599.656C603.557 599.656 595.745 623.481 595.745 643.4V643.4Z" fill="#930093"/>
</svg>
